X: 82
M:2/4
L:1/16
K:Bb
uF2|
u(FE)|
(DF)(BF) (dF)(BF) | .D.F.B.F .d.F.B.F |\
(EG)(BG) (eG)(BG) | .E.G.B.G .e.G.B.G |
(DF)(BF) (dF)(BF) | .D.F.B.F .d.F.B.F |\
.e.A.c.e .e.A.c.e | .e.c.A.c  B2     :|


